X: 1
T: Carmel Maloney Mulhaire
M: C|
L: 1/8
C: Martin Mulhaire
S: Martin Mulhaire
R: Reel
D: Green Linnet GLCD 1135
Z: Philippe Varlet 
K: C
|: GE~E2 CEG,E | CE~E2 GAcd | ecgc acgc | ~d2 fd BGAB |
|  (3cBA (3BAG AGED | ~C2 EC G,CEG | AF~F2 dGBd |1 egdB cBcA :|2 egdB c2gf ||
|: ~e2 ed eged | ce~e2 ge~e2 | c'egc' e'c'ge | (3fed (3edc dGBd |
|  ~e2 ed eged | ce~e2 gceg | ~f2 eg fagf |1 efed c2gf :|2 efed c2ef ||
|: gG~G2 EGcd | ec'~c'2 agfe | fdd^c d=cBA | ~G2 ^FA G2ef |
|  gG~G2 EGcd | ec'~c'2 agfe | fdd^c d=cBA |1 GEFD C2ef :|2 GEFD C2GF ||
|: EG~G2 (3EFG CE | GCEG ageg | ~f2 ef (3def cA | GdBG ^FG=FG |
|  EG~G2 (3EFG CE | GCEG ageg | ~f2 ef df cd |1 BGAB cBcG :|2 BGAB cBcA |]
